Numix-GalliumOS/22/categories/applications-sports.svg

<?xml version="1.0" encoding="UTF-8" standalone="no"?>
<svg
   xmlns:dc="http://purl.org/dc/elements/1.1/"
   xmlns:cc="http://creativecommons.org/ns#"
   xmlns:rdf="http://www.w3.org/1999/02/22-rdf-syntax-ns#"
   xmlns:svg="http://www.w3.org/2000/svg"
   xmlns="http://www.w3.org/2000/svg"
   xmlns:sodipodi="http://sodipodi.sourceforge.net/DTD/sodipodi-0.dtd"
   xmlns:inkscape="http://www.inkscape.org/namespaces/inkscape"
   width="22"
   height="22"
   viewBox="0 0 22 22"
   id="svg2"
   version="1.1"
   inkscape:version="0.91 r"
   sodipodi:docname="applications-sports.svg">
  <metadata
     id="metadata10">
    <rdf:RDF>
      <cc:Work
         rdf:about="">
        <dc:format>image/svg+xml</dc:format>
        <dc:type
           rdf:resource="http://purl.org/dc/dcmitype/StillImage" />
      </cc:Work>
    </rdf:RDF>
  </metadata>
  <defs
     id="defs8" />
  <sodipodi:namedview
     pagecolor="#ffffff"
     bordercolor="#666666"
     borderopacity="1"
     objecttolerance="10"
     gridtolerance="10"
     guidetolerance="10"
     inkscape:pageopacity="0"
     inkscape:pageshadow="2"
     inkscape:window-width="961"
     inkscape:window-height="480"
     id="namedview6"
     showgrid="false"
     inkscape:zoom="10.727273"
     inkscape:cx="11"
     inkscape:cy="11"
     inkscape:window-x="10"
     inkscape:window-y="34"
     inkscape:window-maximized="0"
     inkscape:current-layer="svg2" />
  <path
     style="fill:#9c9c37;stroke:#9c9c37;stroke-width:0.08506332"
     d="M 10.325147,19.47493 C 6.7394695,19.228833 3.5951665,16.404579 2.7046061,12.986568 1.8882591,9.4435551 3.5131412,5.4513179 6.6886919,3.5997323 8.7315124,2.3809672 11.293826,2.2286215 13.551475,2.8614419 c 2.792766,0.8593857 4.917612,3.3437916 5.663651,6.1133574 0.671827,2.5508127 0.187487,5.4492867 -1.593634,7.4610297 -1.613164,2.007838 -4.191102,3.164102 -6.772946,3.062539 -0.171862,-0.0039 -0.351537,-0.01172 -0.523399,-0.02344 z m 2.132657,-0.402349 c 0.644485,-0.05469 0.531212,-0.253909 -0.05468,-0.304691 -1.042893,-0.199221 -2.171717,-0.207034 -3.1794568,0.148439 0.8866548,0.425787 2.0662558,0.31641 3.0622778,0.187502 z M 9.2939716,18.506168 C 9.7548756,18.037412 9.2744418,16.92021 8.8721273,16.478799 7.9776609,16.021762 7.2823988,15.275659 6.4621459,14.709245 5.8450032,14.486586 5.2434843,14.912373 4.6458715,15.056906 c 0,0.589851 -0.042966,1.257828 0.4765279,1.664083 0.8554067,0.843761 1.8865818,1.585957 3.0505598,1.917993 0.3749728,0.01563 0.7655695,-0.0039 1.1210124,-0.132814 z m 4.9137054,0.02344 c 1.488174,-0.636727 2.882604,-1.66799 3.718481,-3.070351 0.304665,-0.402349 0.523399,-1.109389 -0.2617,-0.875011 -0.992116,0.625008 -1.886582,1.394548 -2.902133,1.980493 -0.613237,0.488288 -1.058517,1.160171 -1.495985,1.796898 0.152332,0.355473 0.64839,0.269534 0.941337,0.167971 z m 1.00774,-2.570345 c 0.746039,-0.613289 1.827992,-1.007825 2.222495,-1.937524 0.175768,-0.730478 0.191392,-1.4883 0.265605,-2.234403 -0.746039,-0.660164 -1.660035,-1.105482 -2.554502,-1.531269 -0.882748,0.07031 -1.59754,0.855479 -2.300614,1.363298 -0.371067,0.203128 -0.273418,0.667977 -0.374973,1.02345 -0.136709,0.824229 -0.292947,1.648458 -0.382784,2.484406 0.695262,0.511726 1.472549,0.984388 2.316238,1.183609 0.308571,0.0039 0.558553,-0.203128 0.808535,-0.351567 z m -5.3316444,0.125 C 10.559505,15.826447 11.457877,15.631132 11.77426,14.916279 12.012524,13.912361 12.141421,12.88891 12.266412,11.86546 11.59068,11.224827 10.875888,10.549037 9.9931396,10.220908 9.2314761,10.205283 8.5869917,10.744352 7.9112595,11.037325 7.0011693,11.283422 6.684786,12.111557 6.6457263,12.967036 c -0.2695116,0.843761 0.03906,1.710959 0.8046291,2.179715 0.6718263,0.492194 1.5311389,1.27736 2.4334172,0.937512 z M 4.2162152,14.900654 C 3.6693799,13.888923 3.2905011,12.775628 3.1381684,11.634988 c -0.5429293,0.109377 -0.050778,1.441425 0.1015552,1.980494 0.2538878,0.734384 0.6444844,1.410174 1.0546109,2.070338 0.074213,-0.273441 0.117179,-0.539069 -0.078119,-0.785166 z M 3.9818572,10.388879 C 4.2201211,10.045125 4.6029059,9.7755904 4.7474266,9.3849606 5.0013144,8.2013521 5.4153469,7.0607129 6.0051478,6.002106 5.981712,5.32241 5.2161426,4.9044361 4.8372639,5.6583517 3.7553111,7.048994 2.9038104,8.7482339 2.8647508,10.541225 2.72023,11.15842 3.2592534,11.603738 3.5678248,10.87326 3.7045336,10.713102 3.8412424,10.549037 3.9818572,10.388879 Z M 17.941781,11.236546 C 18.402685,10.634976 19.039358,9.9201235 18.875307,9.1037071 18.586266,7.5568128 17.789449,6.0880446 16.570787,5.0802195 16.203626,4.9278739 15.543518,4.3614606 15.28963,4.8966235 c -0.374973,0.7187589 -1.304593,1.3945486 -0.96868,2.289091 0.285136,0.8789172 0.496058,1.8008036 0.913997,2.6328452 0.773381,0.5976633 1.663941,1.0664193 2.562314,1.4609553 z M 7.6925254,10.834197 C 8.4034112,10.474818 9.0947673,10.080282 9.7900294,9.6896519 10.020481,8.8732355 10.317335,8.0763506 10.590753,7.2755593 10.629812,6.4044548 9.8525248,5.7833533 9.3330313,5.1739707 8.8252556,4.3614606 7.962037,4.9864684 7.3331764,5.2833471 5.9504643,6.0216375 5.634081,7.6427514 5.1614591,8.9982371 c 0.066401,0.5078188 0.5312114,0.9336053 0.8710305,1.3125159 0.468716,0.468756 0.9960215,1.09767 1.6600358,0.523444 z M 12.793718,6.4513303 c 0.371066,-0.050782 0.781193,-0.015625 1.121012,-0.1210952 0.511682,-0.5468818 0.964774,-1.1875148 1.175696,-1.91018 C 14.832632,3.6895772 13.981131,3.3614481 13.297587,3.111445 12.426557,2.8536293 11.493031,2.7286277 10.590753,2.8301915 9.9384561,3.1622269 8.7666661,4.1270827 9.4267745,4.877092 c 0.4843398,0.5742259 0.9999275,1.1211077 1.5272325,1.6601769 0.613237,0.00391 1.226474,-0.042969 1.839711,-0.085939 z"
     id="path4"
     inkscape:connector-curvature="0" />
</svg>

<svg xmlns="http://www.w3.org/2000/svg" viewBox="0 0 22 22">
 <path d="m 10.325 19.475 c -3.586 -0.246 -6.73 -3.07 -7.621 -6.488 -0.816 -3.543 0.809 -7.535 3.984 -9.387 2.043 -1.219 4.605 -1.371 6.863 -0.738 c 2.793 0.859 4.918 3.344 5.664 6.113 0.672 2.551 0.187 5.449 -1.594 7.461 -1.613 2.01 -4.191 3.164 -6.773 3.063 -0.172 -0.004 -0.352 -0.012 -0.523 -0.023 z m 2.133 -0.402 c 0.644 -0.055 0.531 -0.254 -0.055 -0.305 -1.043 -0.199 -2.172 -0.207 -3.179 0.148 0.887 0.426 2.066 0.316 3.062 0.188 z m -3.164 -0.566 c 0.461 -0.469 -0.02 -1.586 -0.422 -2.027 -0.894 -0.457 -1.59 -1.203 -2.41 -1.77 -0.617 -0.223 -1.219 0.203 -1.816 0.348 c 0 0.59 -0.043 1.258 0.477 1.664 0.855 0.844 1.887 1.586 3.051 1.918 0.375 0.016 0.766 -0.004 1.121 -0.133 z m 4.914 0.023 c 1.488 -0.637 2.883 -1.668 3.718 -3.07 0.305 -0.402 0.523 -1.109 -0.262 -0.875 -0.992 0.625 -1.887 1.395 -2.902 1.98 -0.613 0.488 -1.059 1.16 -1.496 1.797 0.152 0.355 0.648 0.27 0.941 0.168 z m 1.01 -2.57 c 0.746 -0.613 1.828 -1.01 2.222 -1.938 0.176 -0.73 0.191 -1.488 0.266 -2.234 -0.746 -0.66 -1.66 -1.105 -2.555 -1.531 -0.883 0.07 -1.598 0.855 -2.301 1.363 -0.371 0.203 -0.273 0.668 -0.375 1.023 -0.137 0.824 -0.293 1.648 -0.383 2.484 0.695 0.512 1.473 0.984 2.316 1.184 0.309 0.004 0.559 -0.203 0.809 -0.352 z m -5.332 0.125 c 0.676 -0.258 1.574 -0.453 1.89 -1.168 0.238 -1 0.367 -2.027 0.492 -3.051 -0.676 -0.641 -1.391 -1.316 -2.273 -1.645 -0.762 -0.016 -1.406 0.523 -2.082 0.816 -0.91 0.246 -1.226 1.074 -1.266 1.93 c -0.27 0.844 0.039 1.711 0.805 2.18 0.672 0.492 1.531 1.277 2.433 0.938 z m -5.668 -1.184 c -0.547 -1.012 -0.926 -2.125 -1.078 -3.266 c -0.543 0.109 -0.051 1.441 0.102 1.98 0.254 0.734 0.644 1.41 1.055 2.07 0.074 -0.273 0.117 -0.539 -0.078 -0.785 z m -0.234 -4.512 c 0.238 -0.344 0.621 -0.613 0.766 -1 0.254 -1.184 0.668 -2.324 1.258 -3.383 -0.023 -0.68 -0.789 -1.098 -1.168 -0.344 -1.082 1.391 -1.933 3.09 -1.973 4.883 -0.145 0.617 0.395 1.063 0.703 0.332 0.137 -0.16 0.273 -0.324 0.414 -0.484 m 13.96 0.848 c 0.461 -0.602 1.098 -1.316 0.934 -2.133 -0.289 -1.547 -1.086 -3.02 -2.305 -4.02 -0.367 -0.152 -1.027 -0.719 -1.281 -0.184 c -0.375 0.719 -1.305 1.395 -0.969 2.289 0.285 0.879 0.496 1.801 0.914 2.633 0.773 0.598 1.664 1.066 2.562 1.461 z m -10.249 -0.402 c 0.711 -0.359 1.402 -0.754 2.098 -1.145 0.23 -0.816 0.527 -1.613 0.801 -2.414 0.039 -0.871 -0.738 -1.492 -1.258 -2.102 -0.508 -0.813 -1.371 -0.188 -2 0.109 -1.383 0.738 -1.699 2.359 -2.172 3.715 c 0.066 0.508 0.531 0.934 0.871 1.313 0.469 0.469 0.996 1.098 1.66 0.523 z m 5.101 -4.383 c 0.371 -0.051 0.781 -0.016 1.121 -0.121 0.512 -0.547 0.965 -1.188 1.176 -1.91 c -0.258 -0.73 -1.109 -1.059 -1.793 -1.309 -0.871 -0.258 -1.805 -0.383 -2.707 -0.281 -0.652 0.332 -1.824 1.297 -1.164 2.047 c 0.484 0.574 1 1.121 1.527 1.66 0.613 0.004 1.226 -0.043 1.84 -0.086 z" style="fill:#9c9c37;stroke:#9c9c37;stroke-width:0.085"/>
</svg>
